public/assets/img/material-icons/closed_caption_disabled.svg

<svg height="24" viewBox="0 0 24 24" width="24" xmlns="http://www.w3.org/2000/svg"><path d="m6.83 4h12.17c1.1 0 2 .9 2 2v12c0 .05-.01.1-.02.16l-3.38-3.38c.24-.19.4-.46.4-.78v-1h-1.5v.5h-.17l-1.83-1.83v-1.17h2v.5h1.5v-1c0-.55-.45-1-1-1h-3c-.55 0-1 .45-1 1v.17zm12.95 18.61-2.61-2.61h-12.17a2 2 0 0 1 -2-2v-12c0-.05.02-.1.02-.15l-1.63-1.63 1.41-1.41 18.38 18.38zm-8.78-8.78-.83-.83h-.67v.5h-2v-3h.17l-1.27-1.28c-.24.19-.4.46-.4.78v4c0 .55.45 1 1 1h3c.55 0 1-.45 1-1z"/></svg>

<svg xmlns="http://www.w3.org/2000/svg" width="24" height="24" viewBox="0 0 24 24"><path d="M6.83 4H19c1.1 0 2 .9 2 2v12c0 .05-.01.1-.02.16l-3.38-3.38c.24-.19.4-.46.4-.78v-1h-1.5v.5h-.17l-1.83-1.83V10.5h2v.5H18v-1c0-.55-.45-1-1-1h-3c-.55 0-1 .45-1 1v.17L6.83 4zm12.95 18.61L17.17 20H5a2 2 0 0 1-2-2V6c0-.05.02-.1.02-.15L1.39 4.22 2.8 2.81l18.38 18.38-1.4 1.42zM11 13.83l-.83-.83H9.5v.5h-2v-3h.17L6.4 9.22c-.24.19-.4.46-.4.78v4c0 .55.45 1 1 1h3c.55 0 1-.45 1-1v-.17z"/></svg>
